assets/icons/qvision/handyman.svg

<svg width="24" height="24" viewBox="0 0 24 24" fill="none" xmlns="http://www.w3.org/2000/svg">
<g clip-path="url(#clip0_147_5304)">
<path d="M21.6701 18.17L16.3701 12.87H15.3801L12.8401 15.41V16.4L18.1401 21.7C18.5301 22.09 19.1601 22.09 19.5501 21.7L21.6701 19.58C22.0601 19.2 22.0601 18.56 21.6701 18.17Z" fill="#323232"/>
<path d="M17.34 10.19L18.75 8.78L20.87 10.9C22.04 9.73 22.04 7.83 20.87 6.66L17.33 3.12L15.92 4.53V1.71L15.22 1L11.68 4.54L12.39 5.25H15.22L13.81 6.66L14.87 7.72L11.98 10.61L7.85 6.48V5.06L4.83 2.04L2 4.87L5.03 7.9H6.44L10.57 12.03L9.72 12.88H7.6L2.3 18.18C1.91 18.57 1.91 19.2 2.3 19.59L4.42 21.71C4.81 22.1 5.44 22.1 5.83 21.71L11.13 16.41V14.29L16.28 9.14L17.34 10.19Z" fill="#323232"/>
</g>
<defs>
<clipPath id="clip0_147_5304">
<rect width="24" height="24" fill="white"/>
</clipPath>
</defs>
</svg>

<svg xmlns="http://www.w3.org/2000/svg" enable-background="new 0 0 24 24" height="24" viewBox="0 0 24 24" width="24"><g><rect fill="none" height="24" width="24"/></g><g><g><g><path d="M21.67,18.17l-5.3-5.3h-0.99l-2.54,2.54v0.99l5.3,5.3c0.39,0.39,1.02,0.39,1.41,0l2.12-2.12 C22.06,19.2,22.06,18.56,21.67,18.17z"/></g><g><path d="M17.34,10.19l1.41-1.41l2.12,2.12c1.17-1.17,1.17-3.07,0-4.24l-3.54-3.54l-1.41,1.41V1.71L15.22,1l-3.54,3.54l0.71,0.71 h2.83l-1.41,1.41l1.06,1.06l-2.89,2.89L7.85,6.48V5.06L4.83,2.04L2,4.87l3.03,3.03h1.41l4.13,4.13l-0.85,0.85H7.6l-5.3,5.3 c-0.39,0.39-0.39,1.02,0,1.41l2.12,2.12c0.39,0.39,1.02,0.39,1.41,0l5.3-5.3v-2.12l5.15-5.15L17.34,10.19z"/></g></g></g></svg>
